icons/1_Primary/Proxmox.svg

<svg xmlns="http://www.w3.org/2000/svg" width="1024" height="1024" fill="none">
   <g clip-path="url(#a)">
      <path fill="#F8C18C" d="M512 1024c282.77 0 512-229.23 512-512S794.77 0 512 0 0 229.23 0 512s229.23 512 512 512Z"/>
      <path fill="#fff" d="M512 497.8 342.7 311.6c6.6-6.6 14.2-11.7 22.9-15.5 8.7-3.8 18.1-5.7 28.1-5.7 10.7.1 20.4 2.2 29.3 6.3 8.9 4.1 16.6 9.8 23.1 17l65.8 71.9 65.4-71.9c6.8-7.2 14.7-12.9 23.6-17 9-4.1 18.7-6.2 29.2-6.3 10 .1 19.4 2 28.1 5.7 8.7 3.8 16.4 8.9 22.9 15.5L512 497.8Zm0 28.4L342.7 712.4c6.6 6.6 14.2 11.7 22.9 15.5 8.7 3.8 18.1 5.7 28.1 5.7 10.5-.1 20.2-2.2 29.2-6.3s16.9-9.8 23.6-17l65.4-71.9 65.8 71.9c6.5 7.2 14.2 12.9 23.1 17 8.9 4.1 18.6 6.2 29.3 6.3 10-.1 19.4-2 28.1-5.7 8.7-3.8 16.4-8.9 22.9-15.5L512 526.2ZM497.8 512 370.3 372.2c-7.4-7.9-16-14.1-25.9-18.7-9.8-4.5-20.5-6.8-31.9-6.9-11 .1-21.3 2.2-30.8 6.3-9.6 4.1-17.9 9.8-25.1 16.9L385.9 512 256.5 654.2c7.2 7.4 15.6 13.2 25.1 17.4 9.6 4.2 19.8 6.3 30.8 6.3 11.5-.1 22.2-2.4 32.1-6.9 9.9-4.5 18.5-10.8 25.7-18.7L497.8 512Zm28.4 0 127.5 140.3c7.2 7.9 15.8 14.1 25.7 18.7 9.9 4.5 20.6 6.8 32.1 6.9 11-.1 21.3-2.2 30.8-6.3 9.6-4.2 17.9-9.9 25.1-17.4L638.1 512l129.4-142.2c-7.2-7.2-15.6-12.8-25.1-16.9-9.6-4.1-19.8-6.2-30.8-6.3-11.4.1-22.1 2.4-31.9 6.9-9.8 4.5-18.5 10.8-25.9 18.7L526.2 512Z"/>
   </g>
   <defs>
      <clipPath id="a">
         <path fill="#fff" d="M0 0h1024v1024H0z"/>
      </clipPath>
   </defs>
</svg>

<svg width="1024" height="1024" viewBox="0 0 1024 1024" fill="none" xmlns="http://www.w3.org/2000/svg">
<g clip-path="url(#clip0_2_3222)">
<path d="M512 1024C794.77 1024 1024 794.77 1024 512C1024 229.23 794.77 0 512 0C229.23 0 0 229.23 0 512C0 794.77 229.23 1024 512 1024Z" fill="#F8C18C"/>
<path d="M512 497.8L342.7 311.6C349.3 305 356.9 299.9 365.6 296.1C374.3 292.3 383.7 290.4 393.7 290.4C404.4 290.5 414.1 292.6 423 296.7C431.9 300.8 439.6 306.5 446.1 313.7L511.9 385.6L577.3 313.7C584.1 306.5 592 300.8 600.9 296.7C609.9 292.6 619.6 290.5 630.1 290.4C640.1 290.5 649.5 292.4 658.2 296.1C666.9 299.9 674.6 305 681.1 311.6L512 497.8ZM512 526.2L342.7 712.4C349.3 719 356.9 724.1 365.6 727.9C374.3 731.7 383.7 733.6 393.7 733.6C404.2 733.5 413.9 731.4 422.9 727.3C431.9 723.2 439.8 717.5 446.5 710.3L511.9 638.4L577.7 710.3C584.2 717.5 591.9 723.2 600.8 727.3C609.7 731.4 619.4 733.5 630.1 733.6C640.1 733.5 649.5 731.6 658.2 727.9C666.9 724.1 674.6 719 681.1 712.4L512 526.2ZM497.8 512L370.3 372.2C362.9 364.3 354.3 358.1 344.4 353.5C334.6 349 323.9 346.7 312.5 346.6C301.5 346.7 291.2 348.8 281.7 352.9C272.1 357 263.8 362.7 256.6 369.8L385.9 512L256.5 654.2C263.7 661.6 272.1 667.4 281.6 671.6C291.2 675.8 301.4 677.9 312.4 677.9C323.9 677.8 334.6 675.5 344.5 671C354.4 666.5 363 660.2 370.2 652.3L497.8 512ZM526.2 512L653.7 652.3C660.9 660.2 669.5 666.4 679.4 671C689.3 675.5 700 677.8 711.5 677.9C722.5 677.8 732.8 675.7 742.3 671.6C751.9 667.4 760.2 661.7 767.4 654.2L638.1 512L767.5 369.8C760.3 362.6 751.9 357 742.4 352.9C732.8 348.8 722.6 346.7 711.6 346.6C700.2 346.7 689.5 349 679.7 353.5C669.9 358 661.2 364.3 653.8 372.2L526.2 512Z" fill="white"/>
</g>
<defs>
<clipPath id="clip0_2_3222">
<rect width="1024" height="1024" fill="white"/>
</clipPath>
</defs>
</svg>
